X: 2
T:Sporting Irishman (#112), The
M:6/8
L:1/8
S:Clinton's Irish Melodies 1840
K:D
F/2E/2|D>ED D2 d|BAG FGE|AdB AFA|EFE E2 A|
DED D2 d|BAG FGE|AdB AFA|DED D2:|
|:d/4e/4f/4g/4|a3 b3|a>ba afd|gag faf|ede fdB|
a3 f3|{f}ede fdB|AFA dAF|D>ED D2:||

